src/cmd/sc_framelinecolor.svg

<?xml version="1.0" encoding="UTF-8" standalone="no"?>
<svg
   xmlns:dc="http://purl.org/dc/elements/1.1/"
   xmlns:cc="http://creativecommons.org/ns#"
   xmlns:rdf="http://www.w3.org/1999/02/22-rdf-syntax-ns#"
   xmlns:svg="http://www.w3.org/2000/svg"
   xmlns="http://www.w3.org/2000/svg"
   xmlns:sodipodi="http://sodipodi.sourceforge.net/DTD/sodipodi-0.dtd"
   xmlns:inkscape="http://www.inkscape.org/namespaces/inkscape"
   viewBox="0 0 16 16"
   version="1.1"
   id="svg6"
   sodipodi:docname="sc_framelinecolor.svg"
   inkscape:version="0.92.4 (5da689c313, 2019-01-14)"
   inkscape:export-filename="/home/jupiter007/Libreoffice yaru theme fullcolor/build/cmd/sc_framelinecolor.png"
   inkscape:export-xdpi="96"
   inkscape:export-ydpi="96">
  <metadata
     id="metadata12">
    <rdf:RDF>
      <cc:Work
         rdf:about="">
        <dc:format>image/svg+xml</dc:format>
        <dc:type
           rdf:resource="http://purl.org/dc/dcmitype/StillImage" />
      </cc:Work>
    </rdf:RDF>
  </metadata>
  <defs
     id="defs10" />
  <sodipodi:namedview
     pagecolor="#ffffff"
     bordercolor="#666666"
     borderopacity="1"
     objecttolerance="10"
     gridtolerance="10"
     guidetolerance="10"
     inkscape:pageopacity="0"
     inkscape:pageshadow="2"
     inkscape:window-width="1920"
     inkscape:window-height="1011"
     id="namedview8"
     showgrid="false"
     inkscape:zoom="29.5"
     inkscape:cx="3.7065326"
     inkscape:cy="7.4983956"
     inkscape:window-x="0"
     inkscape:window-y="32"
     inkscape:window-maximized="1"
     inkscape:current-layer="svg6" />
  <rect
     style="opacity:1;fill:#ffffff;fill-opacity:1;stroke:none;stroke-width:2;stroke-linecap:round;stroke-linejoin:round;stroke-miterlimit:4;stroke-dasharray:none;stroke-opacity:1"
     id="rect822"
     width="8"
     height="8"
     x="4"
     y="4" />
  <path
     d="m3 3v10h10v-10zm1 1h8v6.125 1.875h-2-6zm6 8c1.108 0 2-.836253 2-1.875 0-.3170992-.103019-.6058882-.25-.8671875-.41994-.8789228-1.36084-1.9810157-1.75-3.2578125-.3891705 1.2767968-1.3554506 2.3788897-1.7753906 3.2578125-.1469498.2612993-.2246094.5500883-.2246094.8671875 0 1.038747.8919995 1.875 2 1.875z"
     fill="#232629"
     id="path2" />
  <path
     d="m2 2v12h12v-12zm1 1h10v10h-10z"
     fill="#e95420"
     id="path4" />
</svg>

<?xml version="1.0" encoding="UTF-8" standalone="no"?>
<svg
   xmlns:dc="http://purl.org/dc/elements/1.1/"
   xmlns:cc="http://creativecommons.org/ns#"
   xmlns:rdf="http://www.w3.org/1999/02/22-rdf-syntax-ns#"
   xmlns:svg="http://www.w3.org/2000/svg"
   xmlns="http://www.w3.org/2000/svg"
   xmlns:sodipodi="http://sodipodi.sourceforge.net/DTD/sodipodi-0.dtd"
   xmlns:inkscape="http://www.inkscape.org/namespaces/inkscape"
   viewBox="0 0 16 16"
   version="1.1"
   id="svg6"
   sodipodi:docname="sc_framelinecolor.svg"
   inkscape:version="0.92.5 (2060ec1f9f, 2020-04-08)"
   inkscape:export-filename="/home/jupiter007/Libreoffice yaru theme fullcolor/build/cmd/sc_framelinecolor.png"
   inkscape:export-xdpi="96"
   inkscape:export-ydpi="96">
  <metadata
     id="metadata12">
    <rdf:RDF>
      <cc:Work
         rdf:about="">
        <dc:format>image/svg+xml</dc:format>
        <dc:type
           rdf:resource="http://purl.org/dc/dcmitype/StillImage" />
      </cc:Work>
    </rdf:RDF>
  </metadata>
  <defs
     id="defs10" />
  <sodipodi:namedview
     pagecolor="#ffffff"
     bordercolor="#666666"
     borderopacity="1"
     objecttolerance="10"
     gridtolerance="10"
     guidetolerance="10"
     inkscape:pageopacity="0"
     inkscape:pageshadow="2"
     inkscape:window-width="1920"
     inkscape:window-height="1011"
     id="namedview8"
     showgrid="true"
     inkscape:zoom="41.7193"
     inkscape:cx="4.8399657"
     inkscape:cy="6.3392675"
     inkscape:window-x="0"
     inkscape:window-y="32"
     inkscape:window-maximized="1"
     inkscape:current-layer="svg6">
    <inkscape:grid
       type="xygrid"
       id="grid814" />
  </sodipodi:namedview>
  <rect
     style="opacity:1;fill:#ffffff;fill-opacity:1;stroke:none;stroke-width:2;stroke-linecap:round;stroke-linejoin:round;stroke-miterlimit:4;stroke-dasharray:none;stroke-opacity:1"
     id="rect822"
     width="8"
     height="8"
     x="4"
     y="4" />
  <path
     d="M 3 3 L 3 13 L 13 13 L 13 3 L 3 3 z M 4 4 L 12 4 L 12 10.125 L 12 12 L 10 12 L 4 12 L 4 4 z "
     id="path820"
     style="fill:#232629;fill-opacity:1" />
  <path
     d="m 9,11 c 1.108,0 2,-0.836253 2,-1.875 C 11,8.8079008 10.896981,8.5191118 10.75,8.2578125 10.33006,7.3788897 9.38916,6.2767968 9,5 8.6108295,6.2767968 7.6445494,7.3788897 7.2246094,8.2578125 7.0776596,8.5191118 7,8.8079008 7,9.125 7,10.163747 7.8919995,11 9,11 Z"
     id="path2"
     inkscape:connector-curvature="0"
     style="fill:#232629;fill-opacity:1" />
  <path
     d="m2 2v12h12v-12zm1 1h10v10h-10z"
     fill="#e95420"
     id="path4" />
</svg>
